picto/cog-railway-right-framed.svg

<svg class="color-immutable" width="30" height="30" viewBox="0 0 30 30" fill="none" xmlns="http://www.w3.org/2000/svg"><path d="M0 0H30V30H0V0Z" fill="#2D327D"/><path d="M25.5 3C26.325 3 27 3.675 27 4.5V25.5C27 26.325 26.325 27 25.5 27H4.5C3.675 27 3 26.325 3 25.5V4.5C3 3.675 3.675 3 4.5 3H25.5ZM25.5 2.625H4.5C3.46613 2.625 2.625 3.46613 2.625 4.5V25.5C2.625 26.5339 3.46613 27.375 4.5 27.375H25.5C26.5339 27.375 27.375 26.5339 27.375 25.5V4.5C27.375 3.46613 26.5339 2.625 25.5 2.625Z" fill="white"/><path d="M24.0006 5.99978V6.37583L6.00012 7.9515V7.57455L24.0006 5.99978Z" fill="white"/><path d="M15.6925 20.8187L19.4652 20.4881C19.2218 21.3628 18.4247 21.9681 17.517 21.9681C16.7386 21.9681 16.0279 21.5216 15.6925 20.8187Z" fill="white"/><path d="M11.4319 10.1985L15.3691 7.44547L19.7253 9.47332L17.6517 11.1604L22.359 10.7491C22.3869 10.7462 22.4148 10.7445 22.4436 10.7445C22.9489 10.7445 23.3708 11.1316 23.4154 11.6349L24.0555 18.9571C24.0573 18.9682 24.0573 18.9784 24.0573 18.9895C24.0573 19.1836 23.9088 19.3461 23.7146 19.3638L6.00012 20.9143V16.6219L10.1174 16.2625C10.3116 16.2448 10.4594 16.0823 10.4594 15.8883C10.4594 15.8772 10.4583 15.867 10.4583 15.8558L10.1964 12.866C10.1796 12.6728 10.0181 12.5243 9.82302 12.5243C9.81192 12.5243 9.80067 12.5243 9.7904 12.5262L6.00012 12.8577V12.1798L13.7667 11.5001L11.4319 10.1985ZM20.4333 11.971L20.6943 14.9597C20.7111 15.1537 20.8736 15.3023 21.0678 15.3023C21.0789 15.3023 21.0891 15.3014 21.1003 15.3005L22.7066 15.1603H22.7075C22.9006 15.1426 23.0493 14.9811 23.0493 14.786C23.0493 14.775 23.0484 14.7647 23.0484 14.7536L22.7864 11.7647C22.7697 11.5717 22.6071 11.4232 22.4129 11.4232C22.4018 11.4232 22.3907 11.4232 22.3795 11.4241L20.7743 11.5651C20.5801 11.5819 20.4314 11.7443 20.4314 11.9383C20.4313 11.9497 20.4313 11.9608 20.4333 11.971ZM18.6114 12.2431L18.9849 16.502C19.0099 16.7926 19.2534 17.0155 19.545 17.0155C19.8554 17.0155 20.1072 16.7638 20.1072 16.4537C20.1072 16.437 20.1072 16.4203 20.1053 16.4035L19.7328 12.1455C19.7067 11.8549 19.4643 11.632 19.1727 11.632C18.8623 11.632 18.6096 11.8836 18.6096 12.1947C18.6096 12.2105 18.6105 12.2272 18.6114 12.2431ZM16.8185 12.3999L17.1919 16.6589C17.217 16.9496 17.4595 17.1724 17.7522 17.1724C18.0625 17.1724 18.3141 16.9208 18.3141 16.6098C18.3141 16.593 18.3132 16.5773 18.3123 16.5606L17.9388 12.3025C17.9145 12.0118 17.6712 11.7889 17.3796 11.7889C17.0683 11.7889 16.8166 12.0406 16.8166 12.3517C16.8166 12.3684 16.8175 12.3841 16.8185 12.3999ZM18.4628 9.63022L15.436 8.2218L12.7019 10.1344L14.965 11.3953L16.4533 11.2654L18.4628 9.63022ZM11.21 12.4018C11.0158 12.4185 10.8681 12.5811 10.8681 12.7751C10.8681 12.7862 10.8681 12.7973 10.869 12.8084L11.1311 15.7964C11.1477 15.9904 11.3094 16.139 11.5045 16.139C11.5157 16.139 11.5269 16.139 11.5371 16.1371L16.0577 15.7417C16.2508 15.7249 16.3995 15.5624 16.3995 15.3684C16.3995 15.3572 16.3986 15.3461 16.3986 15.3359L16.1366 12.3471C16.1198 12.1531 15.9582 12.0045 15.7631 12.0045C15.752 12.0045 15.7409 12.0054 15.7306 12.0063L11.21 12.4018Z" fill="white"/><path d="M11.2091 21.2104L14.9827 20.8808C14.7393 21.7555 13.9422 22.3609 13.0336 22.3609C12.2552 22.361 11.5454 21.9134 11.2091 21.2104Z" fill="white"/><path d="M24.0006 22.425L6.00012 24.0006V23.3599L24.0006 21.7852V22.425Z" fill="white"/></svg>

<svg class="color-immutable" width="30" height="30" viewBox="0 0 30 30" fill="none" xmlns="http://www.w3.org/2000/svg"><g clip-path="url(#a)"><path d="M0 0h30v30H0V0Z" fill="#2D327D"/><path d="M25.5 3c.825 0 1.5.675 1.5 1.5v21c0 .825-.675 1.5-1.5 1.5h-21c-.825 0-1.5-.675-1.5-1.5v-21C3 3.675 3.675 3 4.5 3h21Zm0-.375h-21A1.877 1.877 0 0 0 2.625 4.5v21c0 1.034.841 1.875 1.875 1.875h21a1.877 1.877 0 0 0 1.875-1.875v-21A1.877 1.877 0 0 0 25.5 2.625Z" fill="#fff"/><path d="M24 6v.376L6 7.95v-.376L24 6ZM15.693 20.819l3.772-.33a2.023 2.023 0 0 1-3.772.33ZM11.432 10.198l3.937-2.753 4.356 2.028-2.073 1.687 4.707-.41a.977.977 0 0 1 1.056.886l.64 7.321c.002.011.002.021.002.032a.376.376 0 0 1-.342.375L6 20.914v-4.292l4.117-.36a.376.376 0 0 0 .342-.374v-.032l-.263-2.99a.374.374 0 0 0-.373-.342c-.011 0-.022 0-.033.002L6 12.858v-.678l7.767-.68-2.335-1.302Zm9.001 1.773.261 2.989c.017.194.18.342.374.342.01 0 .021 0 .032-.002l1.607-.14a.376.376 0 0 0 .342-.374v-.032l-.263-2.99a.375.375 0 0 0-.407-.34l-1.605.141a.375.375 0 0 0-.34.406Zm-1.822.272.374 4.259a.562.562 0 0 0 1.122-.048c0-.017 0-.034-.002-.05l-.372-4.258a.563.563 0 0 0-1.122.097Zm-1.793.157.374 4.259a.561.561 0 0 0 1.122-.05c0-.016 0-.032-.002-.048l-.373-4.258a.562.562 0 0 0-1.12.097Zm1.645-2.77-3.027-1.408-2.734 1.912 2.263 1.261 1.488-.13 2.01-1.635Zm-7.253 2.772a.374.374 0 0 0-.341.406l.262 2.988a.374.374 0 0 0 .373.343c.012 0 .023 0 .033-.002l4.52-.395a.375.375 0 0 0 .343-.374l-.001-.032-.262-2.989a.374.374 0 0 0-.406-.34l-4.521.395ZM11.21 21.21l3.773-.33a2.023 2.023 0 0 1-3.774.33ZM24 22.425 6 24.001v-.641l18-1.575v.64Z" fill="#fff"/></g><defs><clipPath id="a"><path fill="#fff" d="M0 0h30v30H0z"/></clipPath></defs></svg>
